src/assets/svgs/brick.svg

<svg width="199" height="199" viewBox="0 0 199 199" fill="none" xmlns="http://www.w3.org/2000/svg">
<path d="M18 53C71.46 53 124.92 53 180 53C180 83.36 180 113.72 180 145C139.666 145.04 139.666 145.04 122.818 145.049C111.166 145.055 99.5142 145.062 87.8621 145.075C79.3776 145.085 70.893 145.092 62.4084 145.094C57.9131 145.095 53.4177 145.098 48.9223 145.106C44.6961 145.112 40.47 145.115 36.2438 145.113C34.6881 145.113 33.1324 145.115 31.5767 145.119C29.4619 145.124 27.3473 145.123 25.2325 145.12C24.0461 145.121 22.8598 145.122 21.6375 145.123C19 145 19 145 18 144C17.9048 141.17 17.8745 138.364 17.8865 135.533C17.8863 134.18 17.8863 134.18 17.8862 132.799C17.8869 129.865 17.8945 126.93 17.9024 123.996C17.9039 122.19 17.9049 120.384 17.9054 118.578C17.9107 111.865 17.9247 105.151 17.9375 98.4375C17.9582 83.4431 17.9788 68.4487 18 53ZM30 65C30 87.11 30 109.22 30 132C75.21 132 120.42 132 167 132C167 109.89 167 87.78 167 65C121.79 65 76.5801 65 30 65Z" fill="url(#paint0_linear_4723_482)"/>
<path d="M155.238 83.5351C159.221 86.8471 161.625 91.0297 162.273 96.164C162.55 102.87 161.149 107.661 157 113C151.834 117.526 146.57 118.593 139.851 118.43C133.891 117.532 129.865 114.489 126.297 109.727C123.3 104.508 122.354 100.201 123.359 94.2539C125.066 88.2476 129.014 84.5197 134 81C141.947 77.7624 148.338 78.8581 155.238 83.5351ZM137.625 93.625C135.536 96.6778 135.459 98.3697 136 102C137.546 104.36 138.732 104.901 141.375 105.875C144.87 106.041 146.329 105.225 149 103C150.17 100.651 150.17 100.651 150 98C148.858 95.7168 147.81 93.8098 146 92C142.437 91.6041 140.623 91.5733 137.625 93.625Z" fill="url(#paint1_linear_4723_482)"/>
<path d="M110.324 82.5898C114.557 86.1521 117.534 90.2761 118.476 95.7851C118.665 102.032 118.054 107.709 113.641 112.465C108.193 117.309 102.97 118.585 95.8554 118.441C90.2982 117.582 86.1698 114.579 82.5897 110.324C79.4678 105.457 78.5006 100.361 79.3358 94.7382C81.0091 88.3385 84.5231 84.5802 89.9999 80.9999C96.9406 78.0254 103.891 78.4635 110.324 82.5898ZM92.9999 93.9999C91.5625 96.8746 91.6182 98.8189 91.9999 102C94.0097 104.591 94.0097 104.591 96.9999 106C100.147 106.253 100.147 106.253 103 105C105.295 102.335 106.043 100.903 105.875 97.3749C104.914 94.7661 104.301 93.5612 102 91.9999C98.4224 91.5413 96.0313 92.0512 92.9999 93.9999Z" fill="url(#paint2_linear_4723_482)"/>
<path d="M66.3125 82.6251C70.8376 86.393 73.1816 90.2528 74.875 95.9376C75.0792 100.941 73.5779 105.266 72 110C70.2929 111.789 70.2929 111.789 68.1875 113.625C67.5004 114.236 66.8133 114.847 66.1054 115.477C61.3917 118.887 55.5999 118.463 50 118C44.1656 116.17 40.5323 111.827 37 107C35.3041 101.913 35.0087 96.0476 36.6836 90.8985C39.5688 85.4632 43.6909 81.9586 49.3125 79.6251C55.8069 78.5243 60.7924 78.7877 66.3125 82.6251ZM49 94.0001C48.0666 97.6001 47.519 99.9249 49.0625 103.375C51.7798 105.654 53.4554 106.071 57 106C60.1035 104.147 60.1035 104.147 62 101C62.1776 97.3242 62.1776 97.3242 61 94.0001C56.5677 91.0452 53.4323 91.0452 49 94.0001Z" fill="url(#paint3_linear_4723_482)"/>
<path d="M45 82C45 85 45 85 42.5 87.6875C41.675 88.4506 40.85 89.2138 40 90C39.34 89.67 38.68 89.34 38 89C42.75 83.125 42.75 83.125 45 82Z" fill="url(#paint4_linear_4723_482)"/>
<path d="M87 83C87.99 83.33 88.98 83.66 90 84C86.535 86.97 86.535 86.97 83 90C83.9593 86.1626 84.2361 85.4034 87 83Z" fill="url(#paint5_linear_4723_482)"/>
<defs>
<linearGradient id="paint0_linear_4723_482" x1="17.884" y1="99.0615" x2="225" y2="99" gradientUnits="userSpaceOnUse">
<stop stop-color="#555451"/>
<stop offset="1" stop-color="#8D8B84"/>
</linearGradient>
<linearGradient id="paint1_linear_4723_482" x1="142.64" y1="79.1445" x2="142.64" y2="118.445" gradientUnits="userSpaceOnUse">
<stop stop-color="#555451"/>
<stop offset="1" stop-color="#8D8B84"/>
</linearGradient>
<linearGradient id="paint2_linear_4723_482" x1="98.778" y1="79.0776" x2="98.778" y2="118.452" gradientUnits="userSpaceOnUse">
<stop stop-color="#555451"/>
<stop offset="1" stop-color="#8D8B84"/>
</linearGradient>
<linearGradient id="paint3_linear_4723_482" x1="55.2305" y1="79.0598" x2="55.2305" y2="118.31" gradientUnits="userSpaceOnUse">
<stop stop-color="#555451"/>
<stop offset="1" stop-color="#8D8B84"/>
</linearGradient>
<linearGradient id="paint4_linear_4723_482" x1="41.5" y1="82" x2="41.5" y2="90" gradientUnits="userSpaceOnUse">
<stop stop-color="#555451"/>
<stop offset="1" stop-color="#8D8B84"/>
</linearGradient>
<linearGradient id="paint5_linear_4723_482" x1="86.5" y1="83" x2="86.5" y2="90" gradientUnits="userSpaceOnUse">
<stop stop-color="#555451"/>
<stop offset="1" stop-color="#8D8B84"/>
</linearGradient>
</defs>
</svg>

<svg width="199" height="199" fill="none" xmlns="http://www.w3.org/2000/svg"><path d="M18 53h162v92c-40.334.04-40.334.04-57.182.049-11.652.006-23.304.013-34.956.026-8.484.01-16.969.017-25.454.019-4.495.001-8.99.004-13.486.012-4.226.006-8.452.009-12.678.007-1.556 0-3.112.002-4.667.006-2.115.005-4.23.004-6.345.001l-3.595.003C19 145 19 145 18 144a222.97 222.97 0 0 1-.113-8.467v-2.734c0-2.934.008-5.869.015-8.803l.003-5.418c.006-6.713.02-13.427.032-20.14L18 53Zm12 12v67h137V65H30Z" fill="url(#a)"/><path d="M155.238 83.535c3.983 3.312 6.387 7.495 7.035 12.629.277 6.706-1.124 11.497-5.273 16.836-5.166 4.526-10.43 5.593-17.149 5.43-5.96-.898-9.986-3.941-13.554-8.703-2.997-5.219-3.943-9.526-2.938-15.473C125.066 88.248 129.014 84.52 134 81c7.947-3.238 14.338-2.142 21.238 2.535Zm-17.613 10.09c-2.089 3.053-2.166 4.745-1.625 8.375 1.546 2.36 2.732 2.901 5.375 3.875 3.495.166 4.954-.65 7.625-2.875 1.17-2.349 1.17-2.349 1-5-1.142-2.283-2.19-4.19-4-6-3.563-.396-5.377-.427-8.375 1.625Z" fill="url(#b)"/><path d="M110.324 82.59c4.233 3.562 7.21 7.686 8.152 13.195.189 6.247-.422 11.924-4.835 16.68-5.448 4.844-10.671 6.12-17.786 5.976-5.557-.859-9.685-3.862-13.265-8.117-3.122-4.867-4.09-9.963-3.254-15.586C81.009 88.338 84.523 84.58 90 81c6.94-2.975 13.891-2.537 20.324 1.59ZM93 94c-1.438 2.875-1.382 4.819-1 8 2.01 2.591 2.01 2.591 5 4 3.147.253 3.147.253 6-1 2.295-2.665 3.043-4.097 2.875-7.625-.961-2.609-1.574-3.814-3.875-5.375-3.578-.459-5.969.051-9 2Z" fill="url(#c)"/><path d="M66.313 82.625c4.525 3.768 6.869 7.628 8.562 13.313.204 5.003-1.297 9.328-2.875 14.062-1.707 1.789-1.707 1.789-3.813 3.625l-2.082 1.852C61.392 118.887 55.6 118.463 50 118c-5.834-1.83-9.468-6.173-13-11-1.696-5.087-1.991-10.952-.316-16.102 2.885-5.435 7.007-8.94 12.629-11.273 6.494-1.1 11.48-.837 17 3ZM49 94c-.933 3.6-1.481 5.925.063 9.375 2.717 2.279 4.392 2.696 7.937 2.625 3.103-1.853 3.103-1.853 5-5 .178-3.676.178-3.676-1-7-4.432-2.955-7.568-2.955-12 0Z" fill="url(#d)"/><path d="M45 82c0 3 0 3-2.5 5.688L40 90l-2-1c4.75-5.875 4.75-5.875 7-7Z" fill="url(#e)"/><path d="m87 83 3 1-7 6c.96-3.837 1.236-4.597 4-7Z" fill="url(#f)"/><defs><linearGradient id="a" x1="17.884" y1="99.061" x2="225" y2="99" gradientUnits="userSpaceOnUse"><stop stop-color="#555451"/><stop offset="1" stop-color="#8D8B84"/></linearGradient><linearGradient id="b" x1="142.64" y1="79.144" x2="142.64" y2="118.445" gradientUnits="userSpaceOnUse"><stop stop-color="#555451"/><stop offset="1" stop-color="#8D8B84"/></linearGradient><linearGradient id="c" x1="98.778" y1="79.078" x2="98.778" y2="118.452" gradientUnits="userSpaceOnUse"><stop stop-color="#555451"/><stop offset="1" stop-color="#8D8B84"/></linearGradient><linearGradient id="d" x1="55.23" y1="79.06" x2="55.23" y2="118.31" gradientUnits="userSpaceOnUse"><stop stop-color="#555451"/><stop offset="1" stop-color="#8D8B84"/></linearGradient><linearGradient id="e" x1="41.5" y1="82" x2="41.5" y2="90" gradientUnits="userSpaceOnUse"><stop stop-color="#555451"/><stop offset="1" stop-color="#8D8B84"/></linearGradient><linearGradient id="f" x1="86.5" y1="83" x2="86.5" y2="90" gradientUnits="userSpaceOnUse"><stop stop-color="#555451"/><stop offset="1" stop-color="#8D8B84"/></linearGradient></defs></svg>
